icon-themes/breeze_svg/sc/res/sidebar/CellBorder_LeftDiagonal_18x18.svg

<svg viewBox="0 0 18 18" xmlns="http://www.w3.org/2000/svg"><path d="m2 1v15h15v-15z" fill="#b3b3b3"/><path d="m2 1v.6875l14.3125 14.3125h.6875v-.6875l-14.3125-14.3125z" fill="#4d4d4d"/></svg>

<svg xmlns="http://www.w3.org/2000/svg" viewBox="0 0 18 18">
    <path
       style="fill:#b3b3b3"
       d="M 2 1 L 2 16 L 17 16 L 17 1 L 2 1 z "
	   />
    <path
       style="fill:#4d4d4d"
       d="M 2 1 L 2 1.6875 L 16.3125 16 L 17 16 L 17 15.3125 L 2.6875 1 L 2 1 z "
       />
</svg>
